!!!OTL: 87. Auf die Schlacht bei Torgau.
!!!COM: Volksweise
!!!ODT: 18. Jahrh.
!!!ARE: Europa, Mitteleuropa, Deutschland, Preussen
!!!SCT: B0087
!!!TXL: @@DE
!!!YEM: Copyright 1995, estate of Helmut Schaffrath.
**kern	**text
*ICvox	*
*Ivox	*
*M2/4	*
*clefG2	*
*k[b-e-a-]	*
*E-:	*
!LO:TX:a:t=Marſchmäßig.	!
{8b-	Schwe-
=1	=1
8ee-	-rin,
16ddL	der
16ccJ	.
8b-	hat
8b-	uns
=2	=2
8cc'	kom-
8cc'	-man-
8b-}	-dirt,
{8b-	ja
=3	=3
8cc	kom-
8cc	-man-
8b-}	-dirt
{8ee-	und
=4	=4
8.b-/	hat
16a-	die
8g	Truppen
8a-	.
=5	=5
16b-L	an
16ccJ	.
16b-L	ge-
16a-J	.
8g}	-führt
{8g	Potʒ
=6	=6
16f	tau-
16e-	-ſend
16f	Don-
16g	-ner-
[16a-	-wet-
16a-]	-ter!
[16a-	hie-
16a-]	-ben
=7	=7
16gL	wir
16fJ	.
16gL	nicht
16a-J	.
8b-}	drein,
{16g	hie-
16g	-ben
=8	=8
(16a-	wir
16g)	.
(16a-	nicht
16b-/)	.
8cc}	drein!
{8dd	Bei
=9	=9
8ee-	Prag
16ee-	a-
16ee-	-ber
16.ff	büß-
32ff	-ten
16ff	wir
16ee-	den
=10	=10
8dd'	Feld-
8dd'	-herrn
8ee-;}	ein.
{16.g	Tral-
32b-/	-le-
=11	=11
8b-	-ral-
8b-	-la-
8b-	-la,
16a-	tral-
16g	-le-
=12	=12
8cc'	-ral-
8cc'	-la-
8b-}	-la!
{8b-	Bei
=13	=13
8ee-	Prag
16ee-	a-
16ee-	-ber
16.ff	büß-
32ff	-ten
16ff	wir
16ee-	den
=14	=14
8dd'	Feld-
8dd'	-herrn
8ee-;}	ein.
==	==
!!!AGN: Helden -, Ehren -, Gedaechtnis -, Kriegs - Lied
!!!GTL: Helden- und Ehrengedächtnißlieder
!!!ONB: ESAC (Essen Associative Code) Database: BOEHME
!!!AMT: simple duple
!!!AIN: vox
!!!EED: Helmut Schaffrath
!!!EEV: 1.0
!!Volksweise (18. Jahrh.). Hier nach dem Preuß. Soldatenliederb. S. 95.
!!@@COMMENT:"Gedicht von Karl v. Holtei, im Liederſpiel "Leonore". 1828.
!!*Die eingeklammerten Worte ʒu Anfang der 3. und 4. Strophe werden auf den Anfangston geſprochen (recitirt)."
!!@@END:
!!Text: Karl v. Holtei
!!!URL-scan: https://archive.org/details/BoehmeVtLieder1895/page/n97/mode/2up
!!!ENC: Anna Maria Matuszewska
!!!EEV: 2024/17/06
*-	*-
